X: 16263
T: Gremlin
R: jig
M: 6/8
K: Dminor
|:DAF GFE|A,FE DA,C|DCD EDE|FDF G2c|
AFA GFE|DCD EDE|FDF GFG|1 Adc d2F:|2 Adc d2G||
|:A3 BAG|ADD D2E|F3 FED|G3 GFE|
A3 BAG|Adc d2e|fed Adc|1 Adc d2G:|2 Adc d2F||

